X:11556
T:My Love is But a Lassie
M:2/2
L:1/8
S:John McKenna
R:polka
N:Also called "Farewell to Whiskey" and played slower as a listening
N:piece.
K:G
GE||:D2G2 BAGA|B2E2 EGFE|D2G2 BAGB|d2B2 B2d2|
efge d2B2|cBAG A2B2|D2G2 BAGA|1 B2G2 G3E:||2 B2G2 G4||
||:d2Bd g2d2|efge d2B2|d2Bd g3d|e2f2 g3f|
efge d2B2|cBAG A2B2|D2G2 BAGA|1 B2G2 G4:||2 B2G2 G3E||
